;FLAVOR:Marlin
;TIME:1816
;Filament used: 1.43284m
;Layer height: 0.28
;MINX:99
;MINY:119
;MINZ:0.28
;MAXX:201
;MAXY:181
;MAXZ:5.88
;TARGET_MACHINE.NAME:Creality CR-10S Pro
;Generated with Cura_SteamEngine 5.8.1
M140 S50
M105
M190 S50
M104 S200
M105
M109 S200
M82 ;absolute extrusion mode
M201 X500.00 Y500.00 Z100.00 E5000.00 ;Setup machine max acceleration
M203 X500.00 Y500.00 Z10.00 E50.00 ;Setup machine max feedrate
M204 P500.00 R1000.00 T500.00 ;Setup Print/Retract/Travel acceleration
M205 X8.00 Y8.00 Z0.40 E5.00 ;Setup Jerk
M220 S100 ;Reset Feedrate
M221 S100 ;Reset Flowrate

G28 ;Home
G29 ;Auto bed Level
M420 S1 ;Save and use mesh

G92 E0 ;Reset Extruder
G1 Z2.0 F3000 ;Move Z Axis up
G1 X10.1 Y20 Z0.28 F5000.0 ;Move to start position
G1 X10.1 Y200.0 Z0.28 F1500.0 E15 ;Draw the first line
G1 X10.4 Y200.0 Z0.28 F5000.0 ;Move to side a little
G1 X10.4 Y20 Z0.28 F1500.0 E30 ;Draw the second line
G92 E0 ;Reset Extruder
G1 Z2.0 F3000 ;Move Z Axis up

G92 E0
G92 E0
G1 F2700 E-5
;LAYER_COUNT:21
;LAYER:0
M107
G0 F6000 X103.192 Y121.376 Z0.28
;TYPE:SKIRT
G1 F2700 E0
G1 F1200 X103.924 Y120.846 E0.04208
G1 X104.821 Y120.311 E0.09071
G1 X105.699 Y119.89 E0.13605
G1 X106.612 Y119.548 E0.18145
G1 X107.549 Y119.289 E0.22672
G1 X108.516 Y119.111 E0.2725
G1 X109.655 Y119.015 E0.32573
G1 X110.312 Y119 E0.35633
G1 X189.304 Y119 E4.03453
G1 X190.184 Y119.013 E4.07551
G1 X191.156 Y119.072 E4.12085
G1 X192.119 Y119.218 E4.16621
G1 X193.066 Y119.449 E4.21159
G1 X193.954 Y119.749 E4.25524
G1 X194.846 Y120.139 E4.30057
G1 X195.729 Y120.626 E4.34753
G1 X196.48 Y121.128 E4.38959
G1 X197.295 Y121.786 E4.43836
G1 X197.993 Y122.464 E4.48367
G1 X198.629 Y123.201 E4.529
G1 X199.199 Y123.991 E4.57437
G1 X199.661 Y124.767 E4.61642
G1 X200.115 Y125.709 E4.66511
G1 X200.444 Y126.587 E4.70877
G1 X200.713 Y127.559 E4.75573
G1 X200.89 Y128.525 E4.80146
G1 X200.985 Y129.655 E4.85426
G1 X201 Y130.33 E4.8857
G1 X200.999 Y169.4 E6.70497
G1 X200.988 Y170.163 E6.7405
G1 X200.931 Y171.136 E6.78588
G1 X200.786 Y172.099 E6.83123
G1 X200.557 Y173.045 E6.87655
G1 X200.246 Y173.969 E6.92195
G1 X199.854 Y174.86 E6.96727
G1 X199.386 Y175.712 E7.01254
G1 X198.864 Y176.493 E7.05628
G1 X198.231 Y177.278 E7.10324
G1 X197.606 Y177.929 E7.14526
G1 X196.817 Y178.617 E7.194
G1 X196.057 Y179.167 E7.23769
G1 X195.19 Y179.684 E7.28469
G1 X194.312 Y180.106 E7.33005
G1 X193.401 Y180.448 E7.37536
G1 X192.462 Y180.709 E7.42074
G1 X191.496 Y180.887 E7.46648
G1 X190.345 Y180.985 E7.52027
G1 X189.67 Y181 E7.55171
G1 X110.564 Y180.999 E11.23522
G1 X109.831 Y180.988 E11.26935
G1 X108.859 Y180.931 E11.31469
G1 X107.896 Y180.785 E11.36004
G1 X106.95 Y180.556 E11.40537
G1 X106.026 Y180.244 E11.45078
G1 X105.136 Y179.852 E11.49606
G1 X104.313 Y179.401 E11.53976
G1 X103.474 Y178.84 E11.58676
G1 X102.77 Y178.274 E11.62882
G1 X102.017 Y177.549 E11.67749
G1 X101.38 Y176.813 E11.72282
G1 X100.85 Y176.082 E11.76486
G1 X100.314 Y175.185 E11.81352
G1 X99.892 Y174.307 E11.85888
G1 X99.55 Y173.395 E11.90423
G1 X99.29 Y172.457 E11.94956
G1 X99.112 Y171.488 E11.99543
G1 X99.014 Y170.309 E12.05052
G1 X99 Y169.658 E12.08084
G1 X99.001 Y130.525 E13.90304
G1 X99.012 Y129.825 E13.93564
G1 X99.07 Y128.852 E13.98102
G1 X99.216 Y127.889 E14.02638
G1 X99.446 Y126.943 E14.07171
G1 X99.759 Y126.02 E14.11709
G1 X100.151 Y125.13 E14.16238
G1 X100.621 Y124.277 E14.20773
G1 X101.164 Y123.469 E14.25306
G1 X101.731 Y122.765 E14.29515
G1 X102.456 Y122.013 E14.34379
G1 X103.192 Y121.376 E14.38911
G0 F6000 X103.427 Y121.7
G1 F1200 X104.159 Y121.17 E14.43119
G1 X104.995 Y120.671 E14.47653
G1 X105.84 Y120.264 E14.5202
G1 X106.719 Y119.933 E14.56394
G1 X107.622 Y119.682 E14.60758
G1 X108.55 Y119.51 E14.65153
G1 X109.689 Y119.414 E14.70475
G1 X110.321 Y119.4 E14.73419
G1 X189.298 Y119.4 E18.41169
G1 X190.16 Y119.412 E18.45183
G1 X191.097 Y119.468 E18.49554
G1 X192.025 Y119.607 E18.53923
G1 X192.938 Y119.828 E18.58297
G1 X193.794 Y120.116 E18.62503
G1 X194.686 Y120.506 E18.67036
G1 X195.507 Y120.959 E18.71402
G1 X196.258 Y121.461 E18.75608
G1 X197.017 Y122.073 E18.80148
G1 X197.691 Y122.726 E18.84518
G1 X198.305 Y123.435 E18.88885
G1 X198.855 Y124.196 E18.93258
G1 X199.317 Y124.972 E18.97463
G1 X199.74 Y125.849 E19.01997
G1 X200.069 Y126.727 E19.06363
G1 X200.32 Y127.632 E19.10736
G1 X200.491 Y128.559 E19.15125
G1 X200.586 Y129.689 E19.20405
G1 X200.6 Y130.33 E19.23391
G1 X200.599 Y169.395 E21.05294
G1 X200.589 Y170.14 E21.08763
G1 X200.535 Y171.077 E21.13134
G1 X200.397 Y172.006 E21.17507
G1 X200.178 Y172.918 E21.21874
G1 X199.88 Y173.808 E21.26245
G1 X199.503 Y174.668 E21.30617
G1 X199.053 Y175.49 E21.34981
G1 X198.531 Y176.271 E21.39355
G1 X197.942 Y177.001 E21.43722
G1 X197.317 Y177.652 E21.47925
G1 X196.582 Y178.293 E21.52466
G1 X195.822 Y178.843 E21.56834
G1 X195.016 Y179.324 E21.61205
G1 X194.171 Y179.732 E21.65574
G1 X193.293 Y180.063 E21.69943
G1 X192.389 Y180.316 E21.74314
G1 X191.462 Y180.488 E21.78705
G1 X190.311 Y180.586 E21.84083
G1 X189.67 Y180.6 E21.87069
G1 X110.57 Y180.599 E25.55392
G1 X109.854 Y180.589 E25.58726
G1 X108.918 Y180.535 E25.63092
G1 X107.989 Y180.396 E25.67466
G1 X107.077 Y180.177 E25.71833
G1 X106.187 Y179.878 E25.76205
G1 X105.328 Y179.501 E25.80573
G1 X104.505 Y179.05 E25.84943
G1 X103.725 Y178.528 E25.89313
G1 X103.021 Y177.962 E25.93519
G1 X102.319 Y177.287 E25.98054
G1 X101.704 Y176.578 E26.02425
G1 X101.174 Y175.847 E26.06629
G1 X100.674 Y175.011 E26.11165
G1 X100.266 Y174.166 E26.15534
G1 X99.935 Y173.288 E26.19903
G1 X99.683 Y172.384 E26.24273
G1 X99.511 Y171.455 E26.28673
G1 X99.413 Y170.276 E26.34181
G1 X99.4 Y169.658 E26.3706
G1 X99.401 Y130.531 E28.19251
G1 X99.411 Y129.848 E28.22432
G1 X99.466 Y128.911 E28.26803
G1 X99.605 Y127.983 E28.31172
G1 X99.825 Y127.071 E28.3554
G1 X100.125 Y126.181 E28.39914
G1 X100.502 Y125.322 E28.44282
G1 X100.953 Y124.5 E28.48648
G1 X101.476 Y123.72 E28.53021
G1 X102.043 Y123.016 E28.5723
G1 X102.718 Y122.315 E28.61761
G1 X103.427 Y121.7 E28.66132
G0 F6000 X103.662 Y122.024
G1 F1200 X104.394 Y121.494 E28.7034
G1 X105.169 Y121.031 E28.74543
G1 X105.982 Y120.638 E28.78748
G1 X106.827 Y120.318 E28.82955
G1 X107.696 Y120.075 E28.87157
G1 X108.584 Y119.909 E28.91364
G1 X109.723 Y119.813 E28.96686
G1 X110.33 Y119.8 E28.99513
G1 X189.293 Y119.8 E32.67198
G1 X190.137 Y119.811 E32.71128
G1 X191.039 Y119.864 E32.75336
G1 X191.932 Y119.996 E32.79539
G1 X192.81 Y120.207 E32.83744
G1 X193.666 Y120.495 E32.87949
G1 X194.493 Y120.857 E32.92153
G1 X195.285 Y121.292 E32.9636
G1 X196.036 Y121.794 E33.00567
G1 X196.739 Y122.361 E33.04772
G1 X197.389 Y122.988 E33.08977
G1 X197.981 Y123.67 E33.13183
G1 X198.511 Y124.401 E33.17387
G1 X198.973 Y125.177 E33.21592
G1 X199.366 Y125.99 E33.25797
G1 X199.684 Y126.835 E33.30001
G1 X199.927 Y127.705 E33.34207
G1 X200.092 Y128.593 E33.38413
G1 X200.187 Y129.723 E33.43693
G1 X200.2 Y130.33 E33.4652
G1 X200.199 Y169.39 E35.284
G1 X200.19 Y170.117 E35.31786
G1 X200.139 Y171.019 E35.35992
G1 X200.008 Y171.913 E35.402
G1 X199.799 Y172.791 E35.44402
G1 X199.513 Y173.648 E35.48609
G1 X199.152 Y174.476 E35.52815
G1 X198.72 Y175.268 E35.57016
G1 X198.219 Y176.02 E35.61224
G1 X197.653 Y176.724 E35.6543
G1 X197.028 Y177.375 E35.69632
G1 X196.347 Y177.969 E35.7384
G1 X195.616 Y178.5 E35.78047
G1 X194.842 Y178.964 E35.82249
G1 X194.029 Y179.358 E35.86456
G1 X193.185 Y179.678 E35.90659
G1 X192.315 Y179.923 E35.94867
G1 X191.428 Y180.089 E35.99069
G1 X190.277 Y180.187 E36.04448
G1 X189.67 Y180.2 E36.07275
G1 X110.575 Y180.199 E39.75575
G1 X109.877 Y180.19 E39.78825
G1 X108.976 Y180.139 E39.83027
G1 X108.082 Y180.007 E39.87235
G1 X107.204 Y179.798 E39.91438
G1 X106.347 Y179.511 E39.95646
G1 X105.52 Y179.15 E39.99848
G1 X104.727 Y178.717 E40.04055
G1 X103.976 Y178.216 E40.08259
G1 X103.272 Y177.65 E40.12465
G1 X102.621 Y177.024 E40.16671
G1 X102.028 Y176.343 E40.20875
G1 X101.498 Y175.612 E40.2508
G1 X101.034 Y174.837 E40.29286
G1 X100.64 Y174.024 E40.33493
G1 X100.32 Y173.18 E40.37696
G1 X100.076 Y172.31 E40.41903
G1 X99.91 Y171.422 E40.4611
G1 X99.813 Y170.267 E40.51507
G1 X99.8 Y169.658 E40.54343
G1 X99.801 Y130.536 E42.36511
G1 X99.81 Y129.871 E42.39608
G1 X99.862 Y128.969 E42.43815
G1 X99.994 Y128.076 E42.48019
G1 X100.204 Y127.198 E42.52222
G1 X100.491 Y126.341 E42.56431
G1 X100.853 Y125.514 E42.60634
G1 X101.286 Y124.722 E42.64837
G1 X101.788 Y123.971 E42.69044
G1 X102.355 Y123.267 E42.73253
G1 X102.981 Y122.617 E42.77455
G1 X103.662 Y122.024 E42.8166
G1 F2700 E37.8166
;MESH:LCD1602-DISPLAYPART.stl
G0 F6000 X114.25 Y136.788
G0 X150 Y162.663
;TYPE:WALL-INNER
G1 F2700 E42.8166
G1 F1200 X114.198 Y162.663 E44.48369
G1 X114.018 Y162.619 E44.49232
G1 X113.847 Y162.512 E44.50171
G1 X113.743 Y162.389 E44.50921
G1 X113.652 Y162.138 E44.52164
G1 X113.648 Y137.472 E45.67019
G1 F1243.5 X113.813 Y137.176 E45.68542
G1 F1311.5 X113.932 Y137.081 E45.69191
G1 F1263.2 X114.246 Y136.968 E45.70667
G1 F1200 X185.752 Y136.968 E49.03629
G1 F1263.2 X186.065 Y137.081 E49.05101
G1 F1318.7 X186.186 Y137.175 E49.0575
G1 F1246.8 X186.352 Y137.474 E49.07283
G1 F1200 X186.348 Y162.138 E50.22129
G1 X186.258 Y162.388 E50.23366
G1 X186.155 Y162.51 E50.2411
G1 X185.981 Y162.619 E50.25066
G1 X185.802 Y162.663 E50.25924
G1 X150 Y162.663 E51.92633
G1 F2700 E46.92633
G0 F6000 X149.997 Y169.219
G0 X150 Y169.4
G1 F2700 E51.92633
G1 F1200 X189.4 Y169.4 E53.76096
G1 X189.4 Y167.174 E53.86461
G1 X189.161 Y167.484 E53.88284
G1 X188.674 Y167.853 E53.91129
G1 X188.112 Y168.088 E53.93965
G1 X187.5 Y168.164 E53.96837
G1 X186.895 Y168.091 E53.99675
G1 X186.324 Y167.852 E54.02557
G1 X185.835 Y167.481 E54.05415
G1 X185.464 Y166.992 E54.08273
G1 X185.222 Y166.422 E54.11157
G1 X185.147 Y165.811 E54.14023
G1 X185.223 Y165.206 E54.16862
G1 X185.465 Y164.634 E54.19754
G1 X185.832 Y164.155 E54.22564
G1 X186.315 Y163.779 E54.25414
G1 X186.902 Y163.537 E54.28371
G1 X187.508 Y163.468 E54.31211
G1 X188.107 Y163.537 E54.34019
G1 X188.681 Y163.776 E54.36914
G1 X189.167 Y164.154 E54.39781
G1 X189.4 Y164.455 E54.41553
G1 X189.4 Y136.174 E55.73241
G1 X189.163 Y136.482 E55.75051
G1 X188.677 Y136.853 E55.77898
G1 X188.103 Y137.089 E55.80788
G1 X187.499 Y137.17 E55.83626
G1 F1215.2 X186.88 Y137.085 E55.86499
G1 F1246.8 X186.366 Y136.854 E55.89024
G1 F1230.8 X185.841 Y136.489 E55.91927
G1 F1200 X185.464 Y135.992 E55.94832
G1 X185.222 Y135.422 E55.97715
G1 X185.147 Y134.816 E56.00559
G1 X185.224 Y134.203 E56.03435
G1 X185.463 Y133.639 E56.06288
G1 X185.83 Y133.153 E56.09124
G1 X186.323 Y132.774 E56.12019
G1 X186.892 Y132.538 E56.14887
G1 X187.5 Y132.468 E56.17737
G1 X188.09 Y132.536 E56.20503
G1 X188.673 Y132.774 E56.23435
G1 X189.165 Y133.147 E56.2631
G1 X189.4 Y133.458 E56.28125
G1 X189.4 Y130.6 E56.41433
G1 X110.6 Y130.6 E60.08359
G1 X110.601 Y133.45 E60.2163
G1 X110.831 Y133.148 E60.23397
G1 X111.326 Y132.773 E60.26289
G1 X111.903 Y132.536 E60.29193
G1 X112.496 Y132.468 E60.31973
G1 X113.102 Y132.537 E60.34813
G1 X113.673 Y132.774 E60.37692
G1 X114.159 Y133.147 E60.40544
G1 X114.538 Y133.639 E60.43436
G1 X114.773 Y134.205 E60.4629
G1 X114.849 Y134.811 E60.49134
G1 X114.774 Y135.421 E60.51995
G1 X114.538 Y135.989 E60.5486
G1 X114.152 Y136.49 E60.57804
G1 F1263.2 X113.666 Y136.83 E60.60428
G1 F1297.3 X113.121 Y137.086 E60.63022
G1 F1246.8 X112.496 Y137.17 E60.65848
G1 F1215.2 X111.887 Y137.088 E60.68674
G1 F1200 X111.315 Y136.851 E60.71557
G1 X110.832 Y136.482 E60.74387
G1 X110.6 Y136.177 E60.76171
G1 X110.6 Y164.46 E62.07869
G1 X110.835 Y164.153 E62.09669
G1 X111.322 Y163.774 E62.12543
G1 X111.903 Y163.537 E62.15464
G1 X112.491 Y163.468 E62.18221
G1 X113.105 Y163.537 E62.21098
G1 X113.684 Y163.779 E62.2402
G1 X114.164 Y164.152 E62.26851
G1 X114.542 Y164.638 E62.29718
G1 X114.773 Y165.206 E62.32573
G1 X114.853 Y165.812 E62.35419
G1 X114.773 Y166.426 E62.38302
G1 X114.542 Y166.989 E62.41136
G1 X114.162 Y167.483 E62.44038
G1 X113.676 Y167.852 E62.4688
G1 X113.112 Y168.088 E62.49726
G1 X112.5 Y168.164 E62.52598
G1 X111.896 Y168.091 E62.55431
G1 X111.326 Y167.853 E62.58307
G1 X110.834 Y167.48 E62.61182
G1 X110.6 Y167.169 E62.62994
G1 X110.601 Y169.399 E62.73378
G1 X150 Y169.4 E64.56836
G0 F6000 X150 Y169.8
;TYPE:WALL-OUTER
G1 F1200 X189.8 Y169.8 E66.42162
G1 F1188.1 X189.796 Y166.322 E66.58519
G1 F1224.5 X189.812 Y165.816 E66.60829
G1 X189.796 Y165.31 E66.63139
G1 F1176.5 X189.796 Y135.318 E68.05588
G1 F1224.5 X189.812 Y134.812 E68.07898
G1 X189.796 Y134.31 E68.1019
G1 F1188.1 X189.8 Y130.2 E68.29519
G1 F1200 X110.2 Y130.2 E72.0017
G1 F1191.1 X110.203 Y134.31 E72.19451
G1 F1230.8 X110.187 Y134.812 E72.21732
G1 X110.203 Y135.317 E72.24026
G1 F1185.2 X110.203 Y165.314 E73.6545
G1 F1230.8 X110.188 Y165.816 E73.6773
G1 X110.203 Y166.314 E73.69992
G1 F1194 X110.201 Y169.799 E73.86301
G1 F1200 X150 Y169.8 E75.71622
G1 F2700 E70.71622
G0 F6000 X149.999 Y169.299
G0 X149.998 Y162.842
G0 X150 Y162.264
G1 F2700 E75.71622
G1 F1200 X114.231 Y162.264 E77.38177
G1 X114.114 Y162.214 E77.3877
G1 X114.049 Y162.089 E77.39426
G1 X114.051 Y137.529 E78.53787
G1 X114.139 Y137.4 E78.54515
G1 X114.247 Y137.368 E78.55039
G1 X185.752 Y137.368 E81.87996
G1 X185.861 Y137.399 E81.88524
G1 X185.949 Y137.53 E81.89259
G1 X185.946 Y162.116 E83.03742
G1 X185.887 Y162.213 E83.0427
G1 X185.769 Y162.264 E83.04869
G1 X150 Y162.264 E84.71424
G1 F2700 E79.71424
G0 F6000 X150 Y162.567
G0 X185.816 Y162.843
G0 X186.211 Y163.606
G0 X186.994 Y167.699
G1 F2700 E84.71424
G1 F1200 X186.507 Y167.488 E84.73896
G1 X186.12 Y167.195 E84.76156
G1 X185.803 Y166.767 E84.78636
G1 X185.613 Y166.319 E84.80902
G1 X185.552 Y165.827 E84.8321
G1 X185.612 Y165.31 E84.85634
G1 X185.803 Y164.861 E84.87906
G1 X186.12 Y164.438 E84.90367
G1 X186.535 Y164.12 E84.92802
G1 X187.002 Y163.928 E84.95153
G1 X187.503 Y163.868 E84.97502
G1 X188.003 Y163.928 E84.99847
G1 X188.478 Y164.125 E85.02242
G1 X188.895 Y164.457 E85.04724
G1 X189.202 Y164.864 E85.07098
G1 F1188.1 X189.39 Y165.337 E85.09491
G1 F1224.5 X189.436 Y165.816 E85.11687
G1 X189.39 Y166.303 E85.1392
G1 F1182.3 X189.192 Y166.789 E85.164
G1 F1191.1 X188.877 Y167.197 E85.18818
G1 F1197 X188.45 Y167.513 E85.21298
G1 F1200 X188.005 Y167.7 E85.23545
G1 X187.5 Y167.767 E85.25917
G1 X186.994 Y167.699 E85.28295
G1 F2700 E80.28295
G0 F6000 X186.927 Y168.196
G0 X185.952 Y167.366
G0 X185.604 Y166.913
G0 X185.384 Y166.383
G0 X185.31 Y165.816
G0 X185.384 Y165.25
G0 X185.604 Y164.72
G0 X185.952 Y164.267
G0 X186.915 Y163.373
G0 X189.217 Y163.962
G0 X189.217 Y136.67
G0 X186.845 Y137.182
G0 X187.025 Y136.703
G1 F2700 E85.28295
G1 F1200 X186.547 Y136.514 E85.30688
G1 X186.122 Y136.197 E85.33157
G1 X185.803 Y135.767 E85.3565
G1 X185.612 Y135.318 E85.37922
G1 X185.553 Y134.791 E85.40391
G1 X185.613 Y134.308 E85.42658
G1 X185.803 Y133.861 E85.44919
G1 X186.115 Y133.439 E85.47363
G1 X186.523 Y133.125 E85.4976
G1 X187.013 Y132.926 E85.52223
G1 X187.5 Y132.868 E85.54507
G1 X188.006 Y132.932 E85.56882
G1 X188.493 Y133.14 E85.59348
G1 X188.879 Y133.433 E85.61604
G1 X189.172 Y133.819 E85.63861
G1 F1188.1 X189.39 Y134.337 E85.66504
G1 F1224.5 X189.436 Y134.812 E85.68681
G1 X189.39 Y135.299 E85.70914
G1 F1182.3 X189.192 Y135.789 E85.73411
G1 F1191.1 X188.879 Y136.195 E85.75816
G1 F1197 X188.498 Y136.487 E85.78057
G1 F1200 X187.975 Y136.703 E85.80692
G1 X187.5 Y136.767 E85.82924
G1 X187.025 Y136.703 E85.85156
G1 F2700 E80.85156
G0 F6000 X186.845 Y137.182
G0 X185.066 Y135.465
G0 X185.714 Y133.039
G0 X188.128 Y132.378
G0 X189.217 Y132.958
G0 X189.228 Y130.772
G0 X110.772 Y130.772
G0 X110.782 Y132.956
G0 X113.141 Y132.38
G0 X114.93 Y134.167
G0 X114.324 Y136.373
G0 X113.025 Y137
G0 X112.988 Y136.701
G1 F2700 E85.85156
G1 F1200 X112.495 Y136.767 E85.87472
G1 X111.971 Y136.69 E85.89938
G1 X111.519 Y136.503 E85.92216
G1 X111.116 Y136.194 E85.9458
G1 X110.798 Y135.768 E85.97056
G1 F1194 X110.607 Y135.291 E85.9946
G1 F1230.8 X110.561 Y134.812 E86.01645
G1 X110.607 Y134.337 E86.03811
G1 F1191.1 X110.798 Y133.86 E86.06222
G1 F1200 X111.117 Y133.432 E86.08707
G1 X111.546 Y133.115 E86.11191
G1 X112.009 Y132.926 E86.1352
G1 X112.496 Y132.868 E86.15804
G1 X112.999 Y132.928 E86.18162
G1 X113.473 Y133.125 E86.20553
G1 X113.875 Y133.433 E86.22911
